src/1-subject/sit-side.svg

<svg width="1300" height="1000" viewBox="0 0 1300 1000" fill="none" xmlns="http://www.w3.org/2000/svg"><path d="m607.876 880.828-16.376-8.635 10.147-141.652c1.367-19.081-10.968-36.459-29.432-41.464l-29.064-7.879c-13.074-3.544-21.136-17.136-30.828-26.6a28.727 28.727 0 0 0-10.698-6.602l-21.125-7.303c0-51.667-6-158.691-33-163.5-38.816-6.914-61 16-73 50.5-7.175 20.628-22.5 113.5-22.5 113.5l11.5 3.5v34.192c0 17.113 10.888 32.331 27.085 37.857L494.5 752.193l-15 112.5-1.205 10.545c-.66 5.774 6.205 11.666 6.205 17.477v7.478h134l.035-.934a20 20 0 0 0-10.659-18.431Z" fill="#fff"/><path d="m605.29 886.649-20.79-8.516 12.037-150.57c1.141-14.275-7.966-27.366-21.746-31.26l-91.291-25.8 74.821 50.978a29.997 29.997 0 0 1 12.604 30.27L548 875.193l17.227 6.176a15 15 0 0 1 9.907 13.154l.366 5.67h36v-4.29a10 10 0 0 0-6.21-9.254Z" fill="#000"/><path d="M564.209 887.234 543 877.202l22.385-123.079a30 30 0 0 0-12.325-29.955L473 668.193l-102.5-23v35.721c0 12.746 8.054 24.1 20.083 28.314l111.245 38.965-17.075 123.561c-.619 4.479 4.747 9.114 4.747 13.635v14.823H570l-.068-4.105a10.001 10.001 0 0 0-5.723-8.873Zm-177.71-371.541c-13.907 29.977-25.999 123.5-25.999 123.5l111.5 24 41.181 10.414a1.42 1.42 0 0 0 1.723-1.73 28.396 28.396 0 0 0-18.833-19.969L472 644.193l-63-24 9.311-63.615a1.513 1.513 0 0 1 3 .388l-6.811 60.727 60.5 21.5c0-99.741-14.203-137.981-20.981-150.551-2.018-3.744-5.555-6.208-9.734-7-12.43-2.358-40.63-2.927-57.786 34.051Z" fill="#000"/><path d="M425.384 474.714c3.975 1.333 11.319 1.601 13.237 1.539 0 0 8.639-.375 13.605-2.477 5.595-2.369 8.681-4.599 12.348-9.396 2.505-3.278 4.356-8.855 5.167-11.608.321-1.088.53-2.2.68-3.325l3.391-25.454s.388-3.665.297-6.014c-.215-5.588-1.086-8.842-3.527-13.886-2.508-5.18-4.638-7.925-9.029-11.692-4.68-4.015-8.011-5.724-13.952-7.485-4.612-1.368-7.41-1.736-12.225-1.607-5.161.355-7.073.747-11.951 2.451-4.877 1.82-9.814 4.915-13.529 8.445-3.715 3.53-6.258 7.643-8.191 12.293-1.933 4.651-2.723 9.103-2.55 14.098.066 1.884.352 4.127.716 5.979l5.953 24.8a24.324 24.324 0 0 0 1.131 3.568c1.171 2.854 3.644 8.481 5.96 11.2 3.179 3.733 7.714 6.976 12.469 8.571Z" fill="#fff"/><path d="M427.291 468.902c3.341 1.165 9.511 1.407 11.122 1.354 0 0 7.256-.316 11.426-2.142 4.698-2.057 7.287-3.996 10.363-8.17 2.053-2.788 3.579-7.49 4.281-9.938.302-1.056.497-2.137.635-3.226l2.8-22s.322-3.191.243-5.238c-.187-4.866-.921-7.701-2.978-12.097-2.112-4.514-3.905-6.907-7.597-10.193-3.935-3.501-6.736-4.994-11.728-6.534-3.876-1.196-6.227-1.519-10.272-1.412-4.334.303-5.94.643-10.036 2.121-4.095 1.58-8.239 4.271-11.356 7.341-3.117 3.07-5.249 6.649-6.867 10.698-1.619 4.048-2.278 7.924-2.127 12.275.057 1.64.3 3.595.608 5.208l4.985 21.423a23.97 23.97 0 0 0 1.067 3.469c1.013 2.536 3.045 7.268 4.948 9.583 2.675 3.254 6.488 6.084 10.483 7.478Z" fill="#000"/></svg>

<svg width="1300" height="1000" viewBox="0 0 1300 1000" fill="none" xmlns="http://www.w3.org/2000/svg">
<path d="M607.876 880.828L591.5 872.193L601.647 730.541C603.014 711.46 590.679 694.082 572.215 689.077L543.151 681.198C530.077 677.654 522.015 664.062 512.323 654.598C509.352 651.697 505.727 649.414 501.625 647.996L480.5 640.693C480.5 589.026 474.5 482.002 447.5 477.193C408.684 470.279 386.5 493.193 374.5 527.693C367.325 548.321 352 641.193 352 641.193L363.5 644.693V678.885C363.5 695.998 374.388 711.216 390.585 716.742L494.5 752.193L479.5 864.693L478.295 875.238V875.238C477.635 881.012 484.5 886.904 484.5 892.715V900.193H618.5L618.535 899.259C618.819 891.578 614.676 884.413 607.876 880.828Z" fill="white"/>
<path d="M605.29 886.649L584.5 878.133L596.537 727.563C597.678 713.288 588.571 700.197 574.791 696.303L483.5 670.503L558.321 721.481C568.153 728.179 573.098 740.054 570.925 751.751L548 875.193L565.227 881.369C570.856 883.387 574.749 888.555 575.134 894.523L575.5 900.193H611.5V895.903C611.5 891.844 609.047 888.188 605.29 886.649Z" fill="black"/>
<path d="M564.209 887.234L543 877.202L565.385 754.123C567.483 742.587 562.669 730.887 553.06 724.168L473 668.193L370.5 645.193V680.914C370.5 693.66 378.554 705.014 390.583 709.228L501.828 748.193L484.753 871.754V871.754C484.134 876.233 489.5 880.868 489.5 885.389V900.212H570L569.932 896.107C569.868 892.301 567.65 888.862 564.209 887.234Z" fill="black"/>
<path d="M386.499 515.693C372.592 545.67 360.5 639.193 360.5 639.193L472 663.193L513.181 673.607C514.226 673.871 515.173 672.921 514.904 671.877C512.474 662.427 505.362 654.886 496.071 651.908L472 644.193L409 620.193L418.311 556.578C418.42 555.835 419.057 555.284 419.808 555.284C420.71 555.284 421.411 556.069 421.311 556.966L414.5 617.693L475 639.193C475 539.452 460.797 501.212 454.019 488.642C452.001 484.898 448.464 482.434 444.285 481.642C431.855 479.284 403.655 478.715 386.499 515.693Z" fill="black"/>
<path d="M425.384 474.714C429.359 476.047 436.703 476.315 438.621 476.253C438.621 476.253 447.26 475.878 452.226 473.776C457.821 471.407 460.907 469.177 464.574 464.38C467.079 461.102 468.93 455.525 469.741 452.772C470.062 451.684 470.271 450.572 470.421 449.447L473.812 423.993C473.812 423.993 474.2 420.328 474.109 417.979C473.894 412.391 473.023 409.137 470.582 404.093C468.074 398.913 465.944 396.168 461.553 392.401C456.873 388.386 453.542 386.677 447.601 384.916C442.989 383.548 440.191 383.18 435.376 383.309C430.215 383.664 428.303 384.056 423.425 385.76C418.548 387.58 413.611 390.675 409.896 394.205C406.181 397.735 403.638 401.848 401.705 406.498C399.772 411.149 398.982 415.601 399.155 420.596C399.221 422.48 399.507 424.723 399.871 426.575L405.824 451.375C406.116 452.591 406.48 453.786 406.955 454.943C408.126 457.797 410.599 463.424 412.915 466.143C416.094 469.876 420.629 473.119 425.384 474.714Z" fill="white"/>
<path d="M427.291 468.902C430.632 470.067 436.802 470.309 438.413 470.256C438.413 470.256 445.669 469.94 449.839 468.114C454.537 466.057 457.126 464.118 460.202 459.944C462.255 457.156 463.781 452.454 464.483 450.006C464.785 448.95 464.98 447.869 465.118 446.78L467.918 424.78C467.918 424.78 468.24 421.589 468.161 419.542C467.974 414.676 467.24 411.841 465.183 407.445C463.071 402.931 461.278 400.538 457.586 397.252C453.651 393.751 450.85 392.258 445.858 390.718C441.982 389.522 439.631 389.199 435.586 389.306C431.252 389.609 429.646 389.949 425.55 391.427C421.455 393.007 417.311 395.698 414.194 398.768C411.077 401.838 408.945 405.417 407.327 409.466C405.708 413.514 405.049 417.39 405.2 421.741C405.257 423.381 405.5 425.336 405.808 426.949L410.793 448.372C411.068 449.553 411.41 450.715 411.86 451.841C412.873 454.377 414.905 459.109 416.808 461.424C419.483 464.678 423.296 467.508 427.291 468.902Z" fill="black"/>
</svg>
